src/pos-icons/angle-acute.svg

<svg height="24" viewBox="0 0 24 24" width="24" xmlns="http://www.w3.org/2000/svg"><path d="m20 19h-15.91l10.09-14.57 1.64 1.14-4.54 6.56c1.61.83 2.72 2.49 2.72 4.41 0 .16 0 .31-.03.46h6.03zm-12.09-2h4.05c.04-.15.04-.3.04-.46 0-1.26-.76-2.32-1.86-2.76z"/></svg>

<?xml version="1.0" encoding="UTF-8"?><!DOCTYPE svg PUBLIC "-//W3C//DTD SVG 1.1//EN" "http://www.w3.org/Graphics/SVG/1.1/DTD/svg11.dtd"><svg xmlns="http://www.w3.org/2000/svg" xmlns:xlink="http://www.w3.org/1999/xlink" version="1.1" id="mdi-angle-acute" width="24" height="24" viewBox="0 0 24 24"><path d="M20,19H4.09L14.18,4.43L15.82,5.57L11.28,12.13C12.89,12.96 14,14.62 14,16.54C14,16.7 14,16.85 13.97,17H20V19M7.91,17H11.96C12,16.85 12,16.7 12,16.54C12,15.28 11.24,14.22 10.14,13.78L7.91,17Z" /></svg>
